X:1
T:Title
%%score { ( 1 4 ) | ( 2 3 ) }
L:1/8
M:6/8
K:F
V:1 treble nm="Grand Piano"
V:4 treble 
V:2 bass 
V:3 bass 
V:1
 z3 z2[Q:1/4=100] C | C2 A AG[C_EA] | B3 z3 | C2 C D2 C |[M:5/8] [A,A]-[A,A]- [A,A]3 |[M:1/8] F | %6
[M:3/4] F2 AA Bc | d4 z2 | =B2 c e2 d |[M:5/8] [Ec]-[Ec]- [Ec]3 |[M:1/8] [Ec] | %11
[M:3/4] [Ec]2 [EG] [_E^F]2 [=EG] | [FA]3 [FA]2 [Fd] | [Ec]2 [EG] [_E^F]2 [=EG] |[M:5/8] A-A- A3 | %15
[M:1/8] F |[M:3/4] F2 A c2 f | f3 e2 d | c[GB] [FA] [DA]2 [EG] |[M:5/8] F-F- F3 |] %20
V:2
 z3 z2 [F,A,] | [F,A,]2 [F,CF] FEF, | z2 A, [B,,G,B,]2 [B,,F,B,] | %3
 [C,E,B,]2 [C,E,B,] [C,F,B,]2 [C,E,B,] |[M:5/8] [F,,F,]-[F,,F,]- [F,,F,]3 |[M:1/8] [F,A,C] | %6
[M:3/4] [F,A,C]2[K:treble] [F,CF]F- [G,B,F][A,_EF] | [DF]2 E [A,FA]2 [A,C] | %8
 [_A,DF]2 [=A,CE] [G,CG]2 [G,=B,F] |[M:5/8][K:bass] [C,C]-[C,C]- [C,C]3 |[M:1/8] [C,C] | %11
[M:3/4] [C,B,]2 [C,B,] [C,A,]2 [C,B,] | [C,C]3 [C,C]2 [C,=B,] | [C,B,]2 [C,B,] [C,A,]2 [C,C] | %14
[M:5/8] [F,CF]-[F,CF]- [F,CF]3 |[M:1/8] [F,A,C] | %16
[M:3/4] [F,A,C]2[K:treble] [F,CF] [G,B,E]2 [A,CF] | [B,DB]3 [=B,F_A]2 [B,FA] | %18
 [CFA][K:bass][C,C] [C,C] [C,=B,]2 [C,_B,] |[M:5/8] [F,A,]-[F,A,]- [F,A,]3 |] %20
V:3
 x6 | z3 .[F,C]3 | B,,3 z3 | x6 |[M:5/8] x5 |[M:1/8] x |[M:3/4] z2[K:treble] z [F,C] z2 | B,4 z2 | %8
 x6 |[M:5/8][K:bass] x5 |[M:1/8] x |[M:3/4] x6 | x6 | x6 |[M:5/8] x5 |[M:1/8] x | %16
[M:3/4] x2[K:treble] x4 | x6 | x[K:bass] x5 |[M:5/8] x5 |] %20
V:4
 x6 | x6 | [B,D]2 C D2 D | x6 |[M:5/8] x5 |[M:1/8] x |[M:3/4] x6 | z2 G c2 A | x6 |[M:5/8] x5 | %10
[M:1/8] x |[M:3/4] x6 | x6 | x6 |[M:5/8] x5 |[M:1/8] x |[M:3/4] x6 | x6 | x6 |[M:5/8] x5 |] %20

